ukui-icon-theme-default/scalable/mimetypes/application-octet-stream.svg

<?xml version="1.0" encoding="utf-8"?>
<!-- Generator: Adobe Illustrator 24.0.0, SVG Export Plug-In . SVG Version: 6.00 Build 0)  -->
<svg version="1.1" id="图层_1" xmlns="http://www.w3.org/2000/svg" xmlns:xlink="http://www.w3.org/1999/xlink" x="0px" y="0px"
	 viewBox="0 0 96 96" enable-background="new 0 0 96 96" xml:space="preserve">
<title>96</title>
<g id="字节流">
	<g id="_96">
		<g id="_48">
			
				<linearGradient id="SVGID_1_" gradientUnits="userSpaceOnUse" x1="48" y1="63.5" x2="48" y2="-19.5" gradientTransform="matrix(1 0 0 1 0 26)">
				<stop  offset="0" style="stop-color:#D6D9E6"/>
				<stop  offset="1" style="stop-color:#F5F5F5"/>
			</linearGradient>
			<path fill="url(#SVGID_1_)" d="M23,89.5c-4.7,0-8.5-3.8-8.5-8.5V15c0-4.7,3.8-8.5,8.5-8.5h50c4.7,0,8.5,3.8,8.5,8.5v53.8
				L60.8,89.5H23z"/>
			<path fill="#C4C6CC" d="M73,7c4.4,0,8,3.6,8,8v53.6L60.6,89H23c-4.4,0-8-3.6-8-8V15c0-4.4,3.6-8,8-8H73 M73,6H23c-5,0-9,4-9,9v66
				c0,5,4,9,9,9h38l21-21V15C82,10,78,6,73,6z"/>
		</g>
		
			<linearGradient id="SVGID_2_" gradientUnits="userSpaceOnUse" x1="63.6598" y1="46.9703" x2="70.4798" y2="52.6503" gradientTransform="matrix(1 0 0 1 0 26)">
			<stop  offset="0" style="stop-color:#000000;stop-opacity:0.1"/>
			<stop  offset="1" style="stop-color:#000000;stop-opacity:5.000000e-02"/>
		</linearGradient>
		<path fill="url(#SVGID_2_)" d="M67,69h15L61,90V75C61,71.7,63.7,69,67,69z"/>
		<polygon fill-rule="evenodd" clip-rule="evenodd" fill="#999999" points="67,65 67,54 63,54 63,56 65,56 65,65 63,65 63,67 69,67 
			69,65 		"/>
		<path fill="#999999" d="M56,56v9h-4v-9H56 M56,54h-4c-1.1,0-2,0.9-2,2v9c0,1.1,0.9,2,2,2h4c1.1,0,2-0.9,2-2v-9
			C58,54.9,57.1,54,56,54z"/>
		<path fill="#999999" d="M44,56v9h-4v-9H44 M44,54h-4c-1.1,0-2,0.9-2,2v9c0,1.1,0.9,2,2,2h4c1.1,0,2-0.9,2-2v-9
			C46,54.9,45.1,54,44,54z"/>
		<polygon fill-rule="evenodd" clip-rule="evenodd" fill="#999999" points="31,65 31,54 27,54 27,56 29,56 29,65 27,65 27,67 33,67 
			33,65 		"/>
		<path fill="#999999" d="M68,39v9h-4v-9H68 M68,37h-4c-1.1,0-2,0.9-2,2v9c0,1.1,0.9,2,2,2h4c1.1,0,2-0.9,2-2v-9
			C70,37.9,69.1,37,68,37z"/>
		<path fill="#999999" d="M44,39v9h-4v-9H44 M44,37h-4c-1.1,0-2,0.9-2,2v9c0,1.1,0.9,2,2,2h4c1.1,0,2-0.9,2-2v-9
			C46,37.9,45.1,37,44,37z"/>
		<polygon fill-rule="evenodd" clip-rule="evenodd" fill="#999999" points="55,48 55,37 51,37 51,39 53,39 53,48 51,48 51,50 57,50 
			57,48 		"/>
		<path fill="#999999" d="M32,39v9h-4v-9H32 M32,37h-4c-1.1,0-2,0.9-2,2v9c0,1.1,0.9,2,2,2h4c1.1,0,2-0.9,2-2v-9
			C34,37.9,33.1,37,32,37z"/>
		<path fill="#999999" d="M68,22v9h-4v-9H68 M68,20h-4c-1.1,0-2,0.9-2,2v9c0,1.1,0.9,2,2,2h4c1.1,0,2-0.9,2-2v-9
			C70,20.9,69.1,20,68,20z"/>
		<path fill="#999999" d="M56,22v9h-4v-9H56 M56,20h-4c-1.1,0-2,0.9-2,2v9c0,1.1,0.9,2,2,2h4c1.1,0,2-0.9,2-2v-9
			C58,20.9,57.1,20,56,20z"/>
		<polygon fill-rule="evenodd" clip-rule="evenodd" fill="#999999" points="43,31 43,20 39,20 39,22 41,22 41,31 39,31 39,33 45,33 
			45,31 		"/>
		<path fill="#999999" d="M32,22v9h-4v-9H32 M32,20h-4c-1.1,0-2,0.9-2,2v9c0,1.1,0.9,2,2,2h4c1.1,0,2-0.9,2-2v-9
			C34,20.9,33.1,20,32,20z"/>
	</g>
</g>
</svg>

<svg xmlns="http://www.w3.org/2000/svg" xmlns:xlink="http://www.w3.org/1999/xlink" viewBox="0 0 96 96"><defs><style>.cls-1{fill:url(#未命名的渐变_56);}.cls-2{fill:url(#未命名的渐变_254);}.cls-3,.cls-4{fill:#999;}.cls-3{fill-rule:evenodd;}</style><linearGradient id="未命名的渐变_56" x1="48" y1="32" x2="48" y2="116" gradientTransform="matrix(1, 0, 0, -1, 0, 122)" gradientUnits="userSpaceOnUse"><stop offset="0" stop-color="#d6d9e6"/><stop offset="1" stop-color="#f5f5f5"/></linearGradient><linearGradient id="未命名的渐变_254" x1="63.66" y1="49.03" x2="70.48" y2="43.35" gradientTransform="matrix(1, 0, 0, -1, 0, 122)" gradientUnits="userSpaceOnUse"><stop offset="0" stop-opacity="0.1"/><stop offset="1" stop-opacity="0.05"/></linearGradient></defs><title>96</title><g id="字节流"><g id="_96" data-name="96"><path id="_48" data-name=" 48" class="cls-1" d="M82,69V15a9,9,0,0,0-9-9H23a9,9,0,0,0-9,9V81a9,9,0,0,0,9,9H61Z"/><path class="cls-2" d="M67,69H82L61,90V75A6,6,0,0,1,67,69Z"/><polygon class="cls-3" points="67 65 66.97 54 63 54 63 56 65 56 65 65 63 65 63 67 69 67 69 65 67 65"/><path class="cls-4" d="M56,56v9H52V56h4m0-2H52a2,2,0,0,0-2,2v9a2,2,0,0,0,2,2h4a2,2,0,0,0,2-2V56a2,2,0,0,0-2-2Z"/><path class="cls-4" d="M44,56v9H40V56h4m0-2H40a2,2,0,0,0-2,2v9a2,2,0,0,0,2,2h4a2,2,0,0,0,2-2V56a2,2,0,0,0-2-2Z"/><polygon class="cls-3" points="31 65 31 54 27 54 27 56 29 56 29 65 27 65 27 67 33 67 33 65 31 65"/><path class="cls-4" d="M68,39v9H64V39h4m0-2H64a2,2,0,0,0-2,2v9a2,2,0,0,0,2,2h4a2,2,0,0,0,2-2V39a2,2,0,0,0-2-2Z"/><path class="cls-4" d="M44,39v9H40V39h4m0-2H40a2,2,0,0,0-2,2v9a2,2,0,0,0,2,2h4a2,2,0,0,0,2-2V39a2,2,0,0,0-2-2Z"/><polygon class="cls-3" points="55 48 55 37 51 37 51 39 53 39 53 48 51 48 51 50 57 50 57 48 55 48"/><path class="cls-4" d="M32,39v9H28V39h4m0-2H28a2,2,0,0,0-2,2v9a2,2,0,0,0,2,2h4a2,2,0,0,0,2-2V39a2,2,0,0,0-2-2Z"/><path class="cls-4" d="M68,22v9H64V22h4m0-2H64a2,2,0,0,0-2,2v9a2,2,0,0,0,2,2h4a2,2,0,0,0,2-2V22a2,2,0,0,0-2-2Z"/><path class="cls-4" d="M56,22v9H52V22h4m0-2H52a2,2,0,0,0-2,2v9a2,2,0,0,0,2,2h4a2,2,0,0,0,2-2V22a2,2,0,0,0-2-2Z"/><polygon class="cls-3" points="43 31 43 20 39 20 39 22 41 22 41 31 39 31 39 33 45 33 45 31 43 31"/><path class="cls-4" d="M32,22v9H28V22h4m0-2H28a2,2,0,0,0-2,2v9a2,2,0,0,0,2,2h4a2,2,0,0,0,2-2V22a2,2,0,0,0-2-2Z"/></g></g></svg>
